!!!OTL: EIN MAEDCHEN HOLDER MIENEN
!!!ARE: Europa, Mitteleuropa, Deutschland, Brandenburg
!!!SCT: B0164
!!!YEM: Copyright 1995, estate of Helmut Schaffrath.
**kern
*ICvox
*Ivox
*M2/4
*k[b-]
*F:
{16a
16b-
=1
8cc
8a
8f
8cc
=2
16cc
16b-
16dd
16cc
8b-}
{16g
16a
=3
8b-
8g
8e
8b-
=4
16b-
16a
16cc
16b-
8a}
{8c
=5
8.f
16g
8a
8b-
=6
8cc
8ff
8dd}
{16b-
16dd
=7
16dd
16cc
16a
16f
16cc
16b-
16g
16e
=8
4f
8r}
{16a
16b-
=9
8cc
8a
8f
8cc
=10
16cc
16b-
16dd
16cc
8b-}
{16g
16a
=11
8b-
8g
8e
8b-
=12
16b-
16a
16cc
16b-
8a}
{8c
=13
8.f
16g
8a
8b-
=14
8cc
8ff
8dd}
{16b-
16dd
=15
16dd
16cc
16a
16f
16cc
16b-
16g
16e
=16
4f
8r}
==
!!!AGN: Ballade, Romanze
!!!ONB: ESAC (Essen Associative Code) Database: BOEHME
!!!AMT: simple duple
!!!AIN: vox
!!!EED: Helmut Schaffrath
!!!EEV: 1.0
*-
